src/assets/cart-icon--hover.svg

<svg width="24" height="20" viewBox="0 0 24 20" fill="none" xmlns="http://www.w3.org/2000/svg">
<path fill-rule="evenodd" clip-rule="evenodd" d="M9.23358 18.1817C9.23358 17.173 8.41124 16.3633 7.38685 16.3633C6.36248 16.3633 5.54012 17.173 5.54012 18.1817C5.54012 19.1903 6.36248 20 7.38685 20C8.41124 20 9.23358 19.1903 9.23358 18.1817ZM22.1607 18.1817C22.1607 17.173 21.3383 16.3633 20.3139 16.3633C19.2895 16.3633 18.4672 17.173 18.4672 18.1817C18.4672 19.1903 19.2895 20 20.3139 20C21.3383 20 22.1607 19.1903 22.1607 18.1817ZM24.0074 2.72726C24.0074 2.22994 23.589 1.8182 23.084 1.8182H5.75655C5.61231 1.13632 5.59781 0 4.6168 0H0.923317C0.418371 0 0 0.411965 0 0.90892C0 1.40621 0.418371 1.8182 0.923317 1.8182H3.86656L6.42024 13.5085C6.21824 13.9201 5.54012 15.0141 5.54012 15.4544C5.54012 15.9517 5.95851 16.3633 6.46353 16.3633H21.2373C21.7423 16.3633 22.1607 15.9517 22.1607 15.4544C22.1607 14.9574 21.7423 14.5453 21.2373 14.5453H7.96399C8.10823 14.2612 8.31026 13.9628 8.31026 13.6364C8.31026 13.3095 8.18035 12.9547 8.12266 12.6418L23.185 10.9092C23.6611 10.8522 24.0074 10.4545 24.0074 9.99974V2.72726Z" fill="url(#paint0_linear_16_42)" fill-opacity="0.6"/>
<defs>
<linearGradient id="paint0_linear_16_42" x1="8" y1="4" x2="19" y2="20" gradientUnits="userSpaceOnUse">
<stop stop-color="#EBFF00"/>
<stop offset="1" stop-color="#FF70D9"/>
</linearGradient>
</defs>
</svg>

<svg xmlns="http://www.w3.org/2000/svg" fill="none" viewBox="0 0 24 20"><path fill="url(#a)" fill-opacity=".6" fill-rule="evenodd" d="M9.23 18.18c0-1-.82-1.82-1.84-1.82-1.03 0-1.85.81-1.85 1.82S6.36 20 7.39 20c1.02 0 1.84-.81 1.84-1.82Zm12.93 0c0-1-.82-1.82-1.85-1.82A1.82 1.82 0 1 0 20.3 20c1.03 0 1.85-.81 1.85-1.82Zm1.85-15.45c0-.5-.42-.91-.93-.91H5.76C5.6 1.14 5.6 0 4.62 0H.92C.42 0 0 .41 0 .9c0 .5.42.92.92.92h2.95L6.42 13.5c-.2.41-.88 1.5-.88 1.94 0 .5.42.91.92.91h14.78c.5 0 .92-.4.92-.9s-.42-.91-.92-.91H7.96c.15-.29.35-.59.35-.91 0-.33-.13-.69-.19-1l15.06-1.73a.92.92 0 0 0 .83-.91V2.73Z" clip-rule="evenodd"/><defs><linearGradient id="a" x1="8" x2="19" y1="4" y2="20" gradientUnits="userSpaceOnUse"><stop stop-color="#EBFF00"/><stop offset="1" stop-color="#FF70D9"/></linearGradient></defs></svg>
